img/delete.svg

<?xml version="1.0" encoding="UTF-8" standalone="no"?>
<!-- Generator: Adobe Illustrator 9.0, SVG Export Plug-In  -->

<svg
   xmlns:dc="http://purl.org/dc/elements/1.1/"
   xmlns:cc="http://creativecommons.org/ns#"
   xmlns:rdf="http://www.w3.org/1999/02/22-rdf-syntax-ns#"
   xmlns:svg="http://www.w3.org/2000/svg"
   xmlns="http://www.w3.org/2000/svg"
   xmlns:sodipodi="http://sodipodi.sourceforge.net/DTD/sodipodi-0.dtd"
   xmlns:inkscape="http://www.inkscape.org/namespaces/inkscape"
   width="48.000000px"
   height="48.000000px"
   viewBox="0 0 48 48"
   xml:space="preserve"
   id="svg2"
   sodipodi:version="0.32"
   inkscape:version="0.48.3.1 r9886"
   sodipodi:docname="delete.svg"
   version="1.1"><metadata
   id="metadata25"><rdf:RDF><cc:Work
       rdf:about=""><dc:format>image/svg+xml</dc:format><dc:type
         rdf:resource="http://purl.org/dc/dcmitype/StillImage" /><dc:title>Delete</dc:title><dc:description>A cross</dc:description><cc:license
         rdf:resource="http://creativecommons.org/licenses/GPL/2.0/" /></cc:Work><cc:License
       rdf:about="http://creativecommons.org/licenses/GPL/2.0/"><cc:permits
         rdf:resource="http://web.resource.org/cc/Reproduction" /><cc:permits
         rdf:resource="http://web.resource.org/cc/Distribution" /><cc:requires
         rdf:resource="http://web.resource.org/cc/Notice" /><cc:permits
         rdf:resource="http://web.resource.org/cc/DerivativeWorks" /><cc:requires
         rdf:resource="http://web.resource.org/cc/ShareAlike" /><cc:requires
         rdf:resource="http://web.resource.org/cc/SourceCode" /></cc:License></rdf:RDF></metadata><defs
   id="defs23">
		
	
			
			
			
			
			
			
		</defs><sodipodi:namedview
   inkscape:window-height="950"
   inkscape:window-width="1272"
   inkscape:pageshadow="2"
   inkscape:pageopacity="0.0"
   borderopacity="1.0"
   bordercolor="#666666"
   pagecolor="#ffffff"
   id="base"
   inkscape:document-units="px"
   showgrid="true"
   inkscape:grid-bbox="true"
   inkscape:grid-points="true"
   gridtolerance="0.50000000px"
   guidetolerance="0.50000000px"
   inkscape:zoom="7.9791665"
   inkscape:cx="2.6169872"
   inkscape:cy="16.725427"
   inkscape:window-x="0"
   inkscape:window-y="15"
   inkscape:current-layer="svg2"
   showguides="true"
   inkscape:guide-bbox="true"
   inkscape:window-maximized="0" />
	<rect
   style="fill:none;fill-opacity:0.75000000;fill-rule:evenodd;stroke:none;stroke-width:1.0000000px;stroke-linecap:butt;stroke-linejoin:miter;stroke-opacity:1.0000000"
   id="rect4035"
   width="48.000000"
   height="48.000000"
   x="0.0000000"
   y="0.0000000" /><path
   style="fill-rule:evenodd;stroke:none;stroke-miterlimit:4.0000000"
   d="M 11.100000,11.100000 L 36.900000,36.900000"
   id="path7" /><path
   style="fill-rule:evenodd;stroke:none;stroke-width:8;stroke-linejoin:round;stroke-miterlimit:4;stroke-dasharray:none;fill:none"
   d="M 7.0000000,15.000000 L 33.000000,41.000000 L 41.000000,33.000000 L 15.000000,7.0000000 L 7.0000000,15.000000 z "
   id="path9"
   sodipodi:nodetypes="ccccc" /><path
   style="fill-rule:evenodd;stroke:none;stroke-width:8;stroke-linejoin:round;stroke-miterlimit:4;stroke-dasharray:none"
   d="M 7.0000000,33.000000 L 15.000000,41.000000 L 41.000000,15.200000 L 32.800000,7.0000000 L 7.0000000,33.000000 z "
   id="path11"
   sodipodi:nodetypes="ccccc" /><path
   style="fill-rule:evenodd;stroke:none;stroke-miterlimit:4;fill:#0d3542;fill-opacity:1"
   d="M 7.0000000,15.000000 L 33.000000,41.000000 L 41.000000,33.000000 L 15.000000,7.0000000 L 7.0000000,15.000000 z "
   id="path13"
   sodipodi:nodetypes="ccccc" /><path
   style="fill-rule:evenodd;stroke:none;stroke-miterlimit:4.0000000"
   d="M 36.900000,11.100000 L 11.100000,36.900000"
   id="path15" /><path
   style="fill-rule:evenodd;stroke:none;stroke-miterlimit:4;fill:#0d3542;fill-opacity:1"
   d="M 7.0000000,33.000000 L 15.000000,41.000000 L 41.000000,15.000000 L 33.000000,7.0000000 L 7.0000000,33.000000 z "
   id="path17"
   sodipodi:nodetypes="ccccc" />
	
</svg>

<?xml version="1.0" encoding="UTF-8" standalone="no"?>
<!-- Generator: Adobe Illustrator 9.0, SVG Export Plug-In  -->
<svg id="svg2" xmlns:rdf="http://www.w3.org/1999/02/22-rdf-syntax-ns#" xmlns="http://www.w3.org/2000/svg" xml:space="preserve" height="48px" width="48px" version="1.1" xmlns:cc="http://creativecommons.org/ns#" xmlns:dc="http://purl.org/dc/elements/1.1/" viewBox="0 0 48 48"><metadata id="metadata25"><rdf:RDF><cc:Work rdf:about=""><dc:format>image/svg+xml</dc:format><dc:type rdf:resource="http://purl.org/dc/dcmitype/StillImage"/><dc:title>Delete</dc:title><dc:description>A cross</dc:description><cc:license rdf:resource="http://creativecommons.org/licenses/GPL/2.0/"/></cc:Work><cc:License rdf:about="http://creativecommons.org/licenses/GPL/2.0/"><cc:permits rdf:resource="http://web.resource.org/cc/Reproduction"/><cc:permits rdf:resource="http://web.resource.org/cc/Distribution"/><cc:requires rdf:resource="http://web.resource.org/cc/Notice"/><cc:permits rdf:resource="http://web.resource.org/cc/DerivativeWorks"/><cc:requires rdf:resource="http://web.resource.org/cc/ShareAlike"/><cc:requires rdf:resource="http://web.resource.org/cc/SourceCode"/></cc:License></rdf:RDF></metadata>
	<rect id="rect4035" height="48" width="48" y="0" x="0" fill="none"/><path id="path7" fill-rule="evenodd" d="m11.1 11.1l25.8 25.8"/><path id="path9" fill="none" d="m7 15l26 26 8-8-26-26-8 8z"/><path id="path11" fill-rule="evenodd" d="m7 33l8 8 26-25.8-8.2-8.2-25.8 26z"/><path id="path13" d="m7 15l26 26 8-8-26-26-8 8z" fill-rule="evenodd" fill="#0d3542"/><path id="path15" fill-rule="evenodd" d="m36.9 11.1l-25.8 25.8"/><path id="path17" d="m7 33l8 8 26-26-8-8-26 26z" fill-rule="evenodd" fill="#0d3542"/>
</svg>
